src/images/illustration-simplicity.svg

<svg fill="none" height="108" viewBox="0 0 114 108" width="114" xmlns="http://www.w3.org/2000/svg"><path d="m2 33.3 55-31.8 55 31.8-54.8 33.6z" style="fill:#abe891;stroke:#4d4d4d;stroke-width:3;stroke-miterlimit:10;stroke-linecap:round;stroke-linejoin:round"/><path d="m57 106.5 55-31.6999v-41.5001l-54.8 33.6001z" style="fill:#92d277;stroke:#4d4d4d;stroke-width:3;stroke-miterlimit:10;stroke-linecap:round;stroke-linejoin:round"/><path d="m2 74.8001 55 31.6999.2-39.5999-55.2-33.6001z" style="fill:#6fc14d;stroke:#4d4d4d;stroke-width:3;stroke-miterlimit:10;stroke-linecap:round;stroke-linejoin:round"/><path d="m48.2 42.5v5.5c0 1.3.8999 2.6 2.5999 3.6 3.4 2 9.0001 2 12.4001 0 1.7-1 2.6-2.3 2.6-3.6v-5.5" fill="#6fc14d"/><path d="m48.2 42.5v5.5c0 1.3.8999 2.6 2.5999 3.6 3.4 2 9.0001 2 12.4001 0 1.7-1 2.6-2.3 2.6-3.6v-5.5" stroke="#4d4d4d" stroke-linecap="round" stroke-linejoin="round" stroke-miterlimit="10" stroke-width="3"/><path d="m22.5 27.7v5.5c0 1.3.9 2.5999 2.6 3.5999 3.4 2 9 2 12.4 0 1.7-1 2.6-2.2999 2.6-3.5999v-5.5" fill="#6fc14d"/><path d="m22.5 27.7v5.5c0 1.3.9 2.5999 2.6 3.5999 3.4 2 9 2 12.4 0 1.7-1 2.6-2.2999 2.6-3.5999v-5.5" stroke="#4d4d4d" stroke-linecap="round" stroke-linejoin="round" stroke-miterlimit="10" stroke-width="3"/><path d="m48.2 12.9v5.5c0 1.3.8999 2.6 2.5999 3.6 3.4 2 9.0001 2 12.4001 0 1.7-1 2.6-2.3 2.6-3.6v-5.5" fill="#6fc14d"/><path d="m48.2 12.9v5.5c0 1.3.8999 2.6 2.5999 3.6 3.4 2 9.0001 2 12.4001 0 1.7-1 2.6-2.3 2.6-3.6v-5.5" stroke="#4d4d4d" stroke-linecap="round" stroke-linejoin="round" stroke-miterlimit="10" stroke-width="3"/><path d="m73.8999 27.7v5.5c0 1.3.9 2.5999 2.6 3.5999 3.4 2 9 2 12.4 0 1.7-1 2.6-2.2999 2.6-3.5999v-5.5" fill="#6fc14d"/><g stroke="#4d4d4d" stroke-linecap="round" stroke-linejoin="round" stroke-miterlimit="10" stroke-width="3"><path d="m73.8999 27.7v5.5c0 1.3.9 2.5999 2.6 3.5999 3.4 2 9 2 12.4 0 1.7-1 2.6-2.2999 2.6-3.5999v-5.5"/><path d="m63.0999 39c3.4 2 3.4 5.2 0 7.1-3.4 2-9 2-12.4 0s-3.4-5.2 0-7.1c3.4-2 9-2 12.4 0z" fill="#92d277"/><path d="m37.5 24.2c3.4 2 3.4 5.2 0 7.1-3.4 2-9 2-12.4 0s-3.4-5.2 0-7.1 9-2 12.4 0z" fill="#92d277"/><path d="m63.2 9.3c3.4 2 3.4 5.2 0 7.1-3.4 2-9 2-12.4 0s-3.4-5.2 0-7.1 9-1.9 12.4 0z" fill="#92d277"/><path d="m88.8001 24.1c3.4 2 3.4 5.2 0 7.1-3.4 2-9 2-12.4 0s-3.4-5.2 0-7.1 9-1.9 12.4 0z" fill="#92d277"/></g></svg>

<svg width="114" height="108" viewBox="0 0 114 108" fill="none" xmlns="http://www.w3.org/2000/svg">
<path d="M2 33.3L57 1.5L112 33.3L57.2 66.9L2 33.3Z" fill="#ABE891" stroke="#4D4D4D" stroke-width="3" stroke-miterlimit="10" stroke-linecap="round" stroke-linejoin="round"/>
<path d="M57 106.5L112 74.8001V33.3L57.2 66.9001L57 106.5Z" fill="#92D277" stroke="#4D4D4D" stroke-width="3" stroke-miterlimit="10" stroke-linecap="round" stroke-linejoin="round"/>
<path d="M2 74.8001L57 106.5L57.2 66.9001L2 33.3V74.8001Z" fill="#6FC14D" stroke="#4D4D4D" stroke-width="3" stroke-miterlimit="10" stroke-linecap="round" stroke-linejoin="round"/>
<path d="M48.2 42.5V48C48.2 49.3 49.0999 50.6 50.7999 51.6C54.1999 53.6 59.8 53.6 63.2 51.6C64.9 50.6 65.8 49.3 65.8 48V42.5" fill="#6FC14D"/>
<path d="M48.2 42.5V48C48.2 49.3 49.0999 50.6 50.7999 51.6C54.1999 53.6 59.8 53.6 63.2 51.6C64.9 50.6 65.8 49.3 65.8 48V42.5" stroke="#4D4D4D" stroke-width="3" stroke-miterlimit="10" stroke-linecap="round" stroke-linejoin="round"/>
<path d="M22.5 27.7V33.2C22.5 34.5 23.4 35.7999 25.1 36.7999C28.5 38.7999 34.1 38.7999 37.5 36.7999C39.2 35.7999 40.1 34.5 40.1 33.2V27.7" fill="#6FC14D"/>
<path d="M22.5 27.7V33.2C22.5 34.5 23.4 35.7999 25.1 36.7999C28.5 38.7999 34.1 38.7999 37.5 36.7999C39.2 35.7999 40.1 34.5 40.1 33.2V27.7" stroke="#4D4D4D" stroke-width="3" stroke-miterlimit="10" stroke-linecap="round" stroke-linejoin="round"/>
<path d="M48.2 12.9V18.4C48.2 19.7 49.0999 21 50.7999 22C54.1999 24 59.8 24 63.2 22C64.9 21 65.8 19.7 65.8 18.4V12.9" fill="#6FC14D"/>
<path d="M48.2 12.9V18.4C48.2 19.7 49.0999 21 50.7999 22C54.1999 24 59.8 24 63.2 22C64.9 21 65.8 19.7 65.8 18.4V12.9" stroke="#4D4D4D" stroke-width="3" stroke-miterlimit="10" stroke-linecap="round" stroke-linejoin="round"/>
<path d="M73.8999 27.7V33.2C73.8999 34.5 74.7999 35.7999 76.4999 36.7999C79.8999 38.7999 85.4999 38.7999 88.8999 36.7999C90.5999 35.7999 91.4999 34.5 91.4999 33.2V27.7" fill="#6FC14D"/>
<path d="M73.8999 27.7V33.2C73.8999 34.5 74.7999 35.7999 76.4999 36.7999C79.8999 38.7999 85.4999 38.7999 88.8999 36.7999C90.5999 35.7999 91.4999 34.5 91.4999 33.2V27.7" stroke="#4D4D4D" stroke-width="3" stroke-miterlimit="10" stroke-linecap="round" stroke-linejoin="round"/>
<path d="M63.0999 39C66.4999 41 66.4999 44.2 63.0999 46.1C59.6999 48.1 54.0999 48.1 50.6999 46.1C47.2999 44.1 47.2999 40.9 50.6999 39C54.0999 37 59.6999 37 63.0999 39Z" fill="#92D277" stroke="#4D4D4D" stroke-width="3" stroke-miterlimit="10" stroke-linecap="round" stroke-linejoin="round"/>
<path d="M37.5 24.2C40.9 26.2 40.9 29.4 37.5 31.3C34.1 33.3 28.5 33.3 25.1 31.3C21.7 29.3 21.7 26.1 25.1 24.2C28.5 22.3 34.1 22.2 37.5 24.2Z" fill="#92D277" stroke="#4D4D4D" stroke-width="3" stroke-miterlimit="10" stroke-linecap="round" stroke-linejoin="round"/>
<path d="M63.2 9.3C66.6 11.3 66.6 14.5 63.2 16.4C59.8 18.4 54.2 18.4 50.8 16.4C47.4 14.4 47.4 11.2 50.8 9.3C54.2 7.4 59.8 7.4 63.2 9.3Z" fill="#92D277" stroke="#4D4D4D" stroke-width="3" stroke-miterlimit="10" stroke-linecap="round" stroke-linejoin="round"/>
<path d="M88.8001 24.1C92.2001 26.1 92.2001 29.3 88.8001 31.2C85.4001 33.2 79.8001 33.2 76.4001 31.2C73.0001 29.2 73.0001 26 76.4001 24.1C79.8001 22.2 85.4001 22.2 88.8001 24.1Z" fill="#92D277" stroke="#4D4D4D" stroke-width="3" stroke-miterlimit="10" stroke-linecap="round" stroke-linejoin="round"/>
</svg>
